X:539
T:
S:Ur von Baumgartens samling, Visby.
R:vals
O:Gotland, Visby
M:3/4
L:1/8
K:F
c2|(=Bc)(dc)(Bc)|f4 c2|(=Bc)(dc)(Bc)|a4 f2|(bg)(ge)(ed)|(cB)(BG)(GE)|
F2 F2 A2|F2 z2::C2|(FG)(AB)(c^c)|d2 B2 (EF)|(GA)(Bc)(de)|f2 c2 C2|
(FG)(AB)(c^c)|d2 B2 (EF)|(GA)(Bc)(de)|f2 z2::c2|a3 (efg)|a2 f2 c2|
(BG)(GE)(EC)|BGGE(EC)|{c}f3 (efg)|a2 f2 c2|(BG)(GE)(EC)|F4:|

